X:1
T:Title
L:1/8
M:4/4
I:linebreak $
K:D
V:1 treble nm="Voice"
V:1
"D" DFAF dFAF |"G" G2 BG dG PB2 |"A" Acec acec |1"D" defg a2 a2 :|2"D" dfec d2 d2 |: %5
"D" Adfd"G" ge"D"fd |[M:2/4]"A" edcB |[M:4/4]"D" Adfd"G" ge"D"fd |"A" egec"D" d2 d2 :| %9
